img/icon-onboarding.svg

<svg xmlns="http://www.w3.org/2000/svg" width="72" height="72"><defs><linearGradient id="a" x1="0%" x2="99.58%" y1="0%" y2="99.58%"><stop offset="0%" stop-color="#33D35E"/><stop offset="100%" stop-color="#2AB6D9"/></linearGradient></defs><g fill="none" fill-rule="evenodd"><circle cx="36" cy="36" r="36" fill="url(#a)"/><path fill="#FFF" fill-rule="nonzero" d="M36 16a4.522 4.522 0 014.516 4.516 4.514 4.514 0 01-1.951 3.713c2.647 1.031 4.532 3.601 4.532 6.61v3.226h-6.452v.645c0 .356.29.645.645.645h1.29c1.068 0 1.936.868 1.936 1.935v1.29a1.938 1.938 0 01-1.935 1.936h-1.153l.69.69-.964 1.59c.047.1.081.2.124.3h6.287a5.146 5.146 0 01-1.759-3.87 5.167 5.167 0 015.162-5.161 5.167 5.167 0 015.161 5.16 5.154 5.154 0 01-1.904 4c3.283.621 5.775 3.507 5.775 6.969V56H41.161v-7.42a.969.969 0 00-.967-.967h-.968v1.15l-1.802.443c-.08.215-.17.43-.269.642l.963 1.59-3.453 3.454-1.59-.963c-.214.1-.428.19-.642.268L31.99 56h-4.883l-.442-1.802a8.519 8.519 0 01-.642-.268l-1.59.962-3.454-3.453.963-1.59a8.632 8.632 0 01-.268-.642l-1.803-.443V43.88l1.803-.443c.079-.214.169-.428.268-.642l-.963-1.59.69-.69h-1.153a1.938 1.938 0 01-1.935-1.935v-1.29c0-1.068.868-1.936 1.935-1.936h1.29a.645.645 0 00.646-.645v-.645H16v-3.226c0-3.009 1.885-5.579 4.532-6.61a4.514 4.514 0 01-1.951-3.713A4.522 4.522 0 0123.097 16a4.522 4.522 0 014.516 4.516 4.514 4.514 0 01-1.952 3.713 7.126 7.126 0 013.887 3.67 7.128 7.128 0 013.887-3.67 4.514 4.514 0 01-1.951-3.713A4.522 4.522 0 0136 16zm12.903 28.387H31.806a.969.969 0 000 1.936h8.388a2.26 2.26 0 012.258 2.258v6.129h9.032v-7.097h1.29v7.097h1.936v-4.516a5.813 5.813 0 00-5.807-5.807zm-17.925-6.452h-2.86l-.37 1.514-.347.11a7.029 7.029 0 00-1.113.465l-.32.167-1.339-.81-2.021 2.022.81 1.338-.168.32a7.08 7.08 0 00-.465 1.114l-.11.346-1.514.372v2.86l1.514.37.109.347c.117.368.273.743.466 1.113l.167.32-.81 1.339 2.021 2.021 1.338-.81.322.168c.37.192.744.349 1.114.466l.344.11.373 1.513h2.86l.37-1.514.346-.109a7.029 7.029 0 001.113-.466l.322-.167 1.338.81 2.021-2.021-.81-1.338.167-.322c.193-.37.35-.744.467-1.114l.11-.344 1.512-.373v-.14H35.21a5.813 5.813 0 01-5.662 4.517 5.813 5.813 0 01-5.806-5.806 5.813 5.813 0 015.806-5.807c1.936 0 3.74.985 4.813 2.581h1.503l-.017-.034-.167-.322.81-1.338-2.022-2.021-1.338.81-.321-.167a7.08 7.08 0 00-1.113-.466l-.346-.11-.372-1.514zm-1.43 3.871a4.522 4.522 0 00-4.516 4.517 4.522 4.522 0 004.516 4.516 4.521 4.521 0 004.327-3.226h-1.371a3.225 3.225 0 11-1.71-4.265 2.234 2.234 0 011.012-.251h.898a4.533 4.533 0 00-3.156-1.29zm0 2.581a1.938 1.938 0 00-1.935 1.936c0 1.067.868 1.935 1.935 1.935.623 0 1.184-.3 1.542-.773a2.253 2.253 0 01-1.542-2.13c0-.337.08-.653.212-.94-.071-.009-.14-.028-.212-.028zm17.42-9.032a3.875 3.875 0 00-3.871 3.87 3.875 3.875 0 003.87 3.872 3.875 3.875 0 003.872-3.871 3.875 3.875 0 00-3.871-3.871zm-11.613-1.29H23.742v.645a1.938 1.938 0 01-1.936 1.935h-1.29a.645.645 0 00-.645.645v1.29c0 .357.289.646.645.646h2.443l1.473-1.472 1.59.962c.213-.1.428-.189.642-.268l.443-1.803h4.883l.443 1.803c.214.08.428.169.642.268l1.59-.962 1.472 1.472h2.444a.645.645 0 00.645-.645v-1.29a.645.645 0 00-.645-.646h-1.29a1.938 1.938 0 01-1.936-1.935v-.645zm-12.258-9.033a5.813 5.813 0 00-5.807 5.807v1.935h1.936v-5.161h1.29v5.161h5.161v-5.161h1.29v5.161h1.936V30.84a5.813 5.813 0 00-5.806-5.807zm12.903 0a5.813 5.813 0 00-5.806 5.807v1.935h1.935v-5.161h1.29v5.161h5.162v-5.161h1.29v5.161h1.935V30.84A5.813 5.813 0 0036 25.032zm15.484-1.29A4.522 4.522 0 0156 28.258a4.522 4.522 0 01-4.516 4.516h-7.097v-4.516a4.522 4.522 0 014.516-4.516zm0 1.29h-2.58a3.23 3.23 0 00-3.227 3.226v3.226h5.807a3.23 3.23 0 003.226-3.226 3.23 3.23 0 00-3.226-3.226zm-3.226 3.871v1.29h-1.29v-1.29h1.29zm2.58 0v1.29h-1.29v-1.29h1.29zm2.581 0v1.29h-1.29v-1.29h1.29zm0-2.58v1.29h-6.451v-1.29h6.451zM23.097 17.29a3.23 3.23 0 00-3.226 3.226 3.23 3.23 0 003.226 3.226 3.23 3.23 0 003.226-3.226 3.23 3.23 0 00-3.226-3.226zm12.903 0a3.23 3.23 0 00-3.226 3.226A3.23 3.23 0 0036 23.742a3.23 3.23 0 003.226-3.226A3.23 3.23 0 0036 17.29z"/></g></svg>

<?xml version="1.0" encoding="UTF-8" standalone="no"?>
<!DOCTYPE svg PUBLIC "-//W3C//DTD SVG 1.1//EN" "http://www.w3.org/Graphics/SVG/1.1/DTD/svg11.dtd">
<svg width="100%" height="100%" viewBox="0 0 72 72" version="1.1" xmlns="http://www.w3.org/2000/svg" xmlns:xlink="http://www.w3.org/1999/xlink" xml:space="preserve" xmlns:serif="http://www.serif.com/" style="fill-rule:evenodd;clip-rule:evenodd;stroke-linejoin:round;stroke-miterlimit:2;">
    <g>
        <circle cx="36" cy="36" r="36" style="fill:url(#_Linear1);"/>
        <path d="M36,16C38.476,16.003 40.513,18.04 40.516,20.516C40.515,21.998 39.785,23.388 38.565,24.229C41.212,25.26 43.097,27.83 43.097,30.839L43.097,34.065L36.645,34.065L36.645,34.71C36.645,35.066 36.935,35.355 37.29,35.355L38.58,35.355C39.648,35.355 40.516,36.223 40.516,37.29L40.516,38.58C40.515,39.641 39.642,40.514 38.581,40.516L37.428,40.516L38.118,41.206L37.154,42.796C37.201,42.896 37.235,42.996 37.278,43.096L43.565,43.096C42.449,42.12 41.807,40.708 41.806,39.226C41.809,36.396 44.138,34.068 46.968,34.065C49.798,34.068 52.125,36.395 52.129,39.225C52.129,40.776 51.429,42.247 50.225,43.225C53.508,43.846 56,46.732 56,50.194L56,56L41.161,56L41.161,48.58C41.16,48.05 40.724,47.614 40.194,47.613L39.226,47.613L39.226,48.763L37.424,49.206C37.344,49.421 37.254,49.636 37.155,49.848L38.118,51.438L34.665,54.892L33.075,53.929C32.861,54.029 32.647,54.119 32.433,54.197L31.99,56L27.107,56L26.665,54.198C26.447,54.117 26.233,54.028 26.023,53.93L24.433,54.892L20.979,51.439L21.942,49.849C21.844,49.639 21.755,49.425 21.674,49.207L19.871,48.764L19.871,43.88L21.674,43.437C21.753,43.223 21.843,43.009 21.942,42.795L20.979,41.205L21.669,40.515L20.516,40.515C19.455,40.513 18.583,39.641 18.581,38.58L18.581,37.29C18.581,36.222 19.449,35.354 20.516,35.354L21.807,35.354C22.161,35.354 22.452,35.063 22.452,34.709L22.452,34.064L16,34.064L16,30.838C16,27.829 17.885,25.259 20.532,24.228C19.312,23.387 18.582,21.997 18.581,20.515C18.585,18.039 20.621,16.003 23.097,16C25.573,16.003 27.61,18.04 27.613,20.516C27.612,21.998 26.881,23.388 25.661,24.229C27.383,24.901 28.778,26.218 29.548,27.899C30.318,26.218 31.713,24.902 33.435,24.229C32.215,23.388 31.485,21.998 31.484,20.516C31.487,18.04 33.524,16.003 36,16ZM48.903,44.387L31.806,44.387C31.292,44.41 30.881,44.84 30.881,45.355C30.881,45.87 31.292,46.3 31.806,46.323L40.194,46.323C41.432,46.324 42.451,47.343 42.452,48.581L42.452,54.71L51.484,54.71L51.484,47.613L52.774,47.613L52.774,54.71L54.71,54.71L54.71,50.194C54.707,47.01 52.087,44.39 48.903,44.387ZM30.978,37.935L28.118,37.935L27.748,39.449L27.401,39.559C27.017,39.682 26.645,39.837 26.288,40.024L25.968,40.191L24.629,39.381L22.608,41.403L23.418,42.741L23.25,43.061C23.064,43.418 22.908,43.791 22.785,44.175L22.675,44.521L21.161,44.893L21.161,47.753L22.675,48.123L22.784,48.47C22.901,48.838 23.057,49.213 23.25,49.583L23.417,49.903L22.607,51.242L24.628,53.263L25.966,52.453L26.288,52.621C26.658,52.813 27.032,52.97 27.402,53.087L27.746,53.197L28.119,54.71L30.979,54.71L31.349,53.196L31.695,53.087C32.079,52.964 32.451,52.808 32.808,52.621L33.13,52.454L34.468,53.264L36.489,51.243L35.679,49.905L35.846,49.583C36.039,49.213 36.196,48.839 36.313,48.469L36.423,48.125L37.935,47.752L37.935,47.612L35.21,47.612C34.608,50.244 32.248,52.127 29.548,52.129C26.364,52.125 23.746,49.507 23.742,46.323C23.745,43.139 26.364,40.52 29.548,40.516C31.484,40.516 33.288,41.501 34.361,43.097L35.864,43.097L35.847,43.063L35.68,42.741L36.49,41.403L34.468,39.382L33.13,40.192L32.809,40.025C32.452,39.838 32.08,39.682 31.696,39.559L31.35,39.449L30.978,37.935ZM29.548,41.806C27.071,41.809 25.035,43.846 25.032,46.323C25.035,48.799 27.072,50.836 29.548,50.839C31.539,50.837 33.305,49.52 33.875,47.613L32.504,47.613C31.992,48.786 30.828,49.548 29.548,49.548C27.779,49.548 26.323,48.092 26.323,46.323C26.323,44.554 27.779,43.098 29.548,43.098C29.976,43.098 30.399,43.183 30.794,43.348C31.107,43.186 31.454,43.1 31.806,43.097L32.704,43.097C31.86,42.273 30.727,41.81 29.548,41.807L29.548,41.806ZM29.548,44.387C28.487,44.389 27.614,45.262 27.613,46.323C27.613,47.39 28.481,48.258 29.548,48.258C30.171,48.258 30.732,47.958 31.09,47.485C30.174,47.18 29.551,46.32 29.548,45.355C29.548,45.018 29.628,44.702 29.76,44.415C29.689,44.406 29.62,44.387 29.548,44.387ZM46.968,35.355C44.846,35.357 43.1,37.103 43.097,39.225C43.099,41.348 44.844,43.094 46.967,43.097C49.09,43.095 50.837,41.349 50.839,39.226C50.837,37.103 49.091,35.357 46.968,35.355ZM35.355,34.065L23.742,34.065L23.742,34.71C23.74,35.771 22.867,36.644 21.806,36.645L20.516,36.645C20.162,36.645 19.871,36.936 19.871,37.29L19.871,38.58C19.871,38.937 20.16,39.226 20.516,39.226L22.959,39.226L24.432,37.754L26.022,38.716C26.235,38.616 26.45,38.527 26.664,38.448L27.107,36.645L31.99,36.645L32.433,38.448C32.647,38.528 32.861,38.617 33.075,38.716L34.665,37.754L36.137,39.226L38.581,39.226C38.935,39.226 39.226,38.935 39.226,38.581L39.226,37.29C39.226,36.936 38.935,36.645 38.581,36.645L37.291,36.645C36.23,36.644 35.357,35.771 35.355,34.71L35.355,34.065ZM23.097,25.032C19.913,25.035 17.293,27.655 17.29,30.839L17.29,32.774L19.226,32.774L19.226,27.613L20.516,27.613L20.516,32.774L25.677,32.774L25.677,27.613L26.967,27.613L26.967,32.774L28.903,32.774L28.903,30.84C28.9,27.656 26.281,25.037 23.097,25.033L23.097,25.032ZM36,25.032C32.816,25.036 30.197,27.655 30.194,30.839L30.194,32.774L32.129,32.774L32.129,27.613L33.419,27.613L33.419,32.774L38.581,32.774L38.581,27.613L39.871,27.613L39.871,32.774L41.806,32.774L41.806,30.84C41.803,27.656 39.184,25.036 36,25.032ZM51.484,23.742C53.96,23.745 55.997,25.782 56,28.258C55.997,30.734 53.96,32.771 51.484,32.774L44.387,32.774L44.387,28.258C44.39,25.782 46.427,23.745 48.903,23.742L51.484,23.742ZM51.484,25.032L48.904,25.032C47.135,25.034 45.679,26.489 45.677,28.258L45.677,31.484L51.484,31.484C53.253,31.482 54.708,30.027 54.71,28.258C54.708,26.489 53.253,25.034 51.484,25.032ZM48.258,28.903L48.258,30.193L46.968,30.193L46.968,28.903L48.258,28.903ZM50.838,28.903L50.838,30.193L49.548,30.193L49.548,28.903L50.838,28.903ZM53.419,28.903L53.419,30.193L52.129,30.193L52.129,28.903L53.419,28.903ZM53.419,26.323L53.419,27.613L46.968,27.613L46.968,26.323L53.419,26.323ZM23.097,17.29C21.328,17.292 19.873,18.747 19.871,20.516C19.873,22.285 21.328,23.74 23.097,23.742C24.866,23.74 26.321,22.285 26.323,20.516C26.321,18.747 24.866,17.292 23.097,17.29ZM36,17.29C34.231,17.292 32.776,18.747 32.774,20.516C32.776,22.285 34.231,23.74 36,23.742C37.769,23.74 39.224,22.285 39.226,20.516C39.224,18.747 37.769,17.292 36,17.29Z" style="fill:white;fill-rule:nonzero;"/>
    </g>
    <defs>
        <linearGradient id="_Linear1" x1="0" y1="0" x2="1" y2="0" gradientUnits="userSpaceOnUse" gradientTransform="matrix(71.6976,71.6976,-71.6976,71.6976,0,0)"><stop offset="0" style="stop-color:rgb(51,211,94);stop-opacity:1"/><stop offset="1" style="stop-color:rgb(42,182,217);stop-opacity:1"/></linearGradient>
    </defs>
</svg>
